!!!OTL: Jezu moy o prawdzywy Boze
**kern
*staff1
=1-
*clefF4
*k[b-]
*met(c|)
*M2/2
2r
1G
2D\
1D
2D\
2C/
=2
1F
2F\
1BB-
2F\
2D\
2E-\
=3
1F
1BB-
=4:|!
!!linebreak:original
1B-
2B-\
1B-
2A\
=5
2B-\
1G
2F\
1B-
=6
2G\
2E-\
2BB-/
1F
2BB-/
=7
1BB-
2FF/
2C/
2GG/
1D
=8
0GG
==
*-
!!title: @{OTL}, @{GTL}, ed. @{ENC}
!!!pag:
!!!GTL: Hymnbook D
!!!EFL: 
!!!YEM: Creative Commons CC/BY/NC/SA 4.0
!!!ENC: Marcin Konik
!!!END: 2015-0m-dd
!!!EED: Marcin Konik
!!!EEV: 
!!!ONB: Encoded in vim by Marcin Konik
!!!CharacterEncoding: utf-8
!!!RDF**kern: l=long note in original notation
!!!RDF**kern: i=editorial accidental
!!muse2ps: z14jc180F
!!!COM: Anonim
!!!CDT: [?]
!!!TXO: Polish
!!!ODT: 
!!!GTL: Hymnbook D
!!!ARL: Opactwo św. Wojciecha, Staniątki 
!!!voices:	1
